X:1
T:In illo tempore - Brito
T:#
%%score [ 1 2 3 4 ]
L:1/8
Q:1/4=100
M:4/4
K:Bb
V:1 treble nm="Soprano" snm="S"
V:2 treble nm="Alto" snm="A"
V:3 treble-8 nm="Tenor" snm="T"
V:4 bass nm="Bass" snm="B"
V:1
"^Estêvão de Brito\n(1575-1641)""^In illo tempore" B4 B4- | B2 A2 B2 B2 | B8 | z8 | F3 G _A2 B2 | %5
w: In il\-|* lo tem- po-|re:||tur- bis Ju- dae-|
 c2 F2 z2 c2- | c2 B3 B _A2 | G4 z4 | z2 c4 B2- | BB _A2 G4 | =B4 c4 | _A2 B2 c4 | z2 c4 B2- | %13
w: o- rum di\-|* ce- bat Je-|sus|di- ce\-|* bat Je- sus,|di- ce-|bat Je- sus,|di- ce\-|
 BB _A2 G2 F2- | F2 =E2 F2 G2 | (A2 B4 A2) | B2 F2 G2 B2- | BB _A2 G2 F2 | (c4 B2 _A2) | G4 z2 G2 | %20
w: * bat Je- sus tur\-|* bis Ju- dae-|o\- * *|rum et prin- ci\-|* pi- bus sa- cer-|do\- * *|tum: quis|
 =E2 (F4 E2) | F2 F3 F G2 | F4 z4 | B4 c2 (_AB | cd e4 d2) | e4 z2 B2 | G2 (_A4 G2) | _A4 e3 e | %28
w: ex vo\- *|bis ar- gu- et|me|de pec- ca\- *||to, quis|ex vo\- *|bis ar- gu-|
 f4 e4 | z8 | z2 e2 e2 d2 | c3 c B2 G2 | B4 E4 | z4 F4 | G2 _A2 B4- | B2 B2 c4 | z2 e2 e2 d2 | %37
w: et me?||Si ve- ri-|ta- tem di- co|vo- bis,|qua-|re non cre\-|* di- tis,|si ve- ri-|
 c3 c B2 G2 | B4 E4 | z2 e2 e2 d2 | c3 c B2 G2 | _A2 F2 z2 f2 | f2 e2 d3 d | c2 _A2 c4- | %44
w: ta- tem di- co|vo- bis,|si ve- ri-|ta- tem di- co|vo- bis si|ve- ri- ta- tem|di- co vo\-|
 c2 B4 _A2- | A_A A2 G3 F | E2 e2 e2 d2 | c3 c B2 G2 | B4 _A2[Q:1/4=99] c2- | %49
w: * bis, qua\-|* re non cre- di-|tis, si ve- ri-|ta- tem di- co|vo- bis, qua\-|
[Q:1/4=98] c[Q:1/4=97]c[Q:1/4=96] B2[Q:1/4=94] _A3[Q:1/4=92] A | %50
w: * re non cre- di-|
[Q:1/4=91] G2[Q:1/4=89] (B4[Q:1/4=87] A[Q:1/4=87]G |[Q:1/4=85] A4)[Q:1/4=84] B8 |] %52
w: tis mi\- * *|* hi?|
V:2
 F4 F4- | F2 F2 F2 G2 | F8 | z4 z2 B2- | B2 _A3 A G2 | F2 F4 E2- | EE D2 C4 | E4 F2 D2 | %8
w: In il\-|* lo tem- po-|re:|di\-|* ce- bat Je-|sus, di- ce\-|* bat Je- sus,|di- ce- bat|
 (E3 F G2) F2 | z2 F4 E2- | EE D2 C4 | C2 D2 E2 F2 | (G3 F E2) D2 | C3 D E2 F2 | (G_ABG A2 G2) | %15
w: Je\- * * sus,|di- ce\-|* bat Je- sus|tur- bis Ju- dae-|o\- * * rum,|tur- bis Ju- dae-|o\- * * * * *|
 F4 z2 C2 | D2 F3 F E2 | D2 C2 (E2 D2) | C4 z2 D2 | =B,2 (C4 B,2) | C2 c2 _A2 (B2- | B2 =A2) B4 | %22
w: rum et|prin- ci- pi- bus|sa- cer- do\- *|tum: quis|ex vo\- *|bis, quis ex vo\-|* * bis|
 z2 B,3 B, C2 | B,2 B3 _A (A2- | A2 G2) F2 B2 | G2 (_A4 GF | E2 _A,2) B,2 B,2 | C2 (_A,B, CD E2- | %28
w: ar- gu- et|me de pec- ca\-|* * to, quis|ex vo\- * *|* * bis de|pec- ca\- * * * *|
 E2 D2 E3 F | G_A B4 =A2) | B4 z4 | F4 F2 E2 | D3 D C2 _A,2 | (C2 B,2) _A,4 | z2 _A2 A2 G2 | %35
w: ||to?|Si ve- ri-|ta- tem di- co|vo\- * bis,|si ve- ri-|
 F3 F E2 C2 | (E3 F G2 F2) | E2 C2 D2 E2 | F3 F G2 C2 | D2 E2 F4- | F2 F2 G4 | z2 B2 B2 _A2 | %42
w: ta- tem di- co|vo\- * * *|bis, qua- re non|cre- di- tis, qua-|re non cre\-|* di- tis?|Si ve- ri-|
 G3 G F2 D2 | (F3 G _A2 G2) | F2 G2 G2 F2 | F3 E D4 | G8 | C2 C2 D2 E2 | D2 E2 F4 | G4 C2 C2 | %50
w: ta- tem di- co|vo\- * * *|bis, qua- re non|cre- di- tis,|qua-|re, qua- re non|cre- di- tis,|qua- re non|
 E2 G2 F4 | F4 F8 |] %52
w: cre- di- tis|mi- hi?|
V:3
 B4 d4- | d2 c2 d2 e2 | d4 B4 | c4 _A2 B2 | c2 f4 e2- | ee d2 c2 c2- | c2 d2 e2 f2 | g2 c4 =B2 | %8
w: In il\-|* lo tem- po-|re: di-|ce bat Je-|sus, di- ce\-|* bat Je- sus tur\-|* bis Ju- dae-|o- rum et|
 c2 e3 e d2 | c3 c =B2 c2 | G2 G2 _A4- | A2 G2 z2 c2 | d2 e4 f2 | g2 f2 z4 | B4 c2 e2- | %15
w: prin- ci- pi- bus|sa- cer- do- tum|sa- cer- do\-|* tum, tur-|bis Ju- dae-|o- rum|et prin- ci\-|
 ee d2 c2 c2 | (B3 _A G4) | F4 z4 | z2 c2 d2 f2- | ff e2 d2 d2 | (c6 B2) | c2 f2 d2 (e2- | %22
w: * pi- bus sa- cer-|do\- * *|tum,|et prin- ci\-|* pi- bus sa- cer-|do\- *|tum: quis ex vo\-|
 e2 d2) e4 | z2 e3 e f2 | e4 B4 | c2 (_AB cd e2- | e2 d2) e4 | _A6 c2 | B4 E2 e2 | e2 d2 c3 c | %30
w: * * bis|ar- gu- et|me de|pec- ca\- * * * *|* * to,|de pec-|ca- to? Si|ve- ri- ta- tem|
 B2 G2 B4 | F2 c2 d2 e2 | f3 f g2 (c2- | cd e4 d2) | e4 z2 e2 | e2 d2 c2 _A2 | B2 c2 z4 | %37
w: di- co vo-|bis qua- re non|cre- di- tis mi\-||hi? Si|ve- ri- ta- tem|di- co,|
 z4 z2 e2 | e2 d2 c3 c | B2 G2 B4 | F2 c2 d2 e2 | fc d2 c2 F2 | z4 B4 | F2 f2 f2 e2 | d3 d c4 | %45
w: si|ve- ri- ta- tem|di- co vo-|bis, qua- re non|cre- di- tis mi- hi,|qua-|re, si ve- ri-|ta- tem di-|
 _A2 c4 =B2 | c4 G4 | z4 g4- | g4 c2 c2 | d2 e2 f3 f | g2 (e2 d2 cB | c4) B8 |] %52
w: co vo- bis,|qua- re,|qua\-|* re, qua-|re non cre- di-|tis mi\- * * *|* hi?|
V:4
 B,4 B,4- | B,2 F,2 B,2 E,2 | B,4 z2 B,2- | B,2 _A,3 A, G,2 | F,4 z4 | z2 B,2 C4 | %6
w: In il\-|* lo tem- po-|re: di\-|* ce- bat Je-|sus,|di- ce-|
 _A,2 B,2 C2 F,2 | E,3 E, D,4 | C,2 C,4 D,2 | E,2 F,2 G,2 C,2 | z4 z2 C2- | C2 B,3 B, _A,2 | %12
w: bat Je- sus, di-|ce- bat Je-|sus tur- bis|Ju- dae- o- rum,|di\-|* ce- bat Je-|
 G,2 C,4 D,2 | E,2 F,2 G,4 | G,4 F,2 E,2 | F,8 | B,,4 z4 | z2 F,2 G,2 B,2- | B,B, _A,2 G,2 F,2 | %19
w: sus tur- bis|Ju- dae- o-|rum, Ju- dae|o-|rum|et prin- ci\-|* pi- bus sa- cer-|
 G,4 G,4 | z2 F,3 F, G,2 | F,4 z4 | B,4 G,2 (_A,2- | A,2 G,2) _A,4 | z8 | z4 z2 E,2- | %26
w: do- tum:|ar- gu- et|me,|quis ex vo\-|* * bis||ar-|
 E,E, F,2 E,4 | z8 | z2 B,3 B, C2 | B,4 F,4 | G,2 (E,F, G,_A, B,2- | B,2 _A,2 B,2 C2) | %32
w: * gu- et me,||ar- gu- et|me de|pec- ca\- * * * *||
 B,4 z2 _A,2 | _A,2 G,2 F,3 F, | E,2 C,2 E,4 | B,,4 z2 F,2 | G,2 _A,2 B,3 B, | C2 _A,2 G,2 C2 | %38
w: to? Si|ve- ri- ta- tem|di- co vo-|bis, qua-|re non cre- di-|tis mi- hi, mi-|
 B,4 z4 | z2 E,2 B,,2 B,2 | B,2 _A,2 G,3 G, | F,2 D,2 F,4 | C,4 z4 | F,4 C,2 C,2 | D,2 E,2 F,3 F, | %45
w: hi,|qua- re, si|ve- ri- ta- tem|di- co vo-|bis,|qua- re, qua-|re non cre- di-|
 F,4 G,4 | C,2 C2 C2 B,2 | _A,3 A, G,2 E,2 | G,4 F,2 _A,2 | G,2 G,2 F,3 F, | E,4 F,4- | F,4 B,,8 |] %52
w: tis mi-|hi? Si ve- ri-|ta- tem di- co|vo- bis, qua-|re non cre- di-|tis mi\-|* hi?|

